; generated by PrusaSlicer 2.3.0+win64 on 2021-10-10 at 11:43:46 UTC

; 

; external perimeters extrusion width = 0.45mm
; perimeters extrusion width = 0.45mm
; infill extrusion width = 0.45mm
; solid infill extrusion width = 0.45mm
; top infill extrusion width = 0.40mm
; first layer extrusion width = 0.42mm

M73 P0 R55
M201 X500 Y500 Z100 E5000 ; sets maximum accelerations, mm/sec^2
M203 X500 Y500 Z10 E60 ; sets maximum feedrates, mm/sec
M204 P500 R1000 T500 ; sets acceleration (P, T) and retract acceleration (R), mm/sec^2
M205 X8.00 Y8.00 Z0.40 E5.00 ; sets the jerk limits, mm/sec
M205 S0 T0 ; sets the minimum extruding and travel feed rate, mm/sec
M107
;TYPE:Custom
G90 ; use absolute coordinates
M83 ; extruder relative mode
M104 S210 ; set extruder temp
M140 S60 ; set bed temp
M190 S60 ; wait for bed temp
M109 S210 ; wait for extruder temp
G28 X0 Y0; home all
G1 Z2 F240
G1 X2 Y10 F3000
G1 Z0.28 F240
G92 E0
G1 Y190 E15 F1500 ; intro line
G1 X2.3 F5000
G92 E0
G1 Y10 E15 F1200 ; intro line
G92 E0
G21 ; set units to millimeters
G90 ; use absolute coordinates
M83 ; use relative distances for extrusion
; Filament gcode
;LAYER_CHANGE
;Z:0.16
;HEIGHT:0.16
;BEFORE_LAYER_CHANGE
G92 E0
;0.16


G1 E-5.00000 F3600.000
G1 Z0.160 F9000.000
;AFTER_LAYER_CHANGE
;0.16
G1 X88.079 Y92.118
G1 E5.00000 F2400.000
;TYPE:Skirt
;WIDTH:0.42
G1 F1200.000
G1 X88.734 Y91.163 E0.02971
G1 X89.644 Y90.568 E0.02789
G1 X90.713 Y90.349 E0.02799
G1 X140.254 Y90.348 E1.27095
G1 X141.347 Y90.564 E0.02859
G1 X142.275 Y91.172 E0.02847
G1 X142.908 Y92.088 E0.02856
G1 X143.149 Y93.152 E0.02798
G1 X143.151 Y137.796 E1.14532
G1 X142.915 Y138.896 E0.02887
G1 X142.266 Y139.837 E0.02933
G1 X141.356 Y140.432 E0.02789
G1 X140.287 Y140.651 E0.02799
G1 X90.746 Y140.652 E1.27095
G1 X89.618 Y140.421 E0.02955
G1 X88.663 Y139.766 E0.02972
G1 X88.068 Y138.856 E0.02789
G1 X87.849 Y137.791 E0.02789
G1 X87.848 Y93.246 E1.14277
G1 X88.067 Y92.176 E0.02801
G1 E-3.50000 F3600.000
;WIPE_START
G1 F7200.000
G1 X88.734 Y91.163 E-0.57653
G1 X89.644 Y90.568 E-0.51640
G1 X90.329 Y90.427 E-0.33208
;WIPE_END
G1 E-0.07500 F3600.000
G1 X123.503 Y133.010 F9000.000
G1 E5.00000 F2400.000
;TYPE:Perimeter
G1 F1200.000
G1 X135.992 Y133.010 E0.32039
G1 X135.410 Y133.747 E0.02409
G1 X135.122 Y134.991 E0.03274
G1 X135.374 Y136.118 E0.02963
G1 X135.507 Y136.379 E0.00752
G1 X135.999 Y136.990 E0.02013
G1 X123.503 Y136.990 E0.32058
G1 X124.094 Y136.249 E0.02431
G1 X124.379 Y135.000 E0.03287
G1 X124.094 Y133.751 E0.03287
G1 X123.541 Y133.057 E0.02277
G1 X122.147 Y132.624 F9000.000
G1 F1200.000
G1 X137.344 Y132.624 E0.38987
G1 X136.441 Y133.064 E0.02579
G1 X135.767 Y133.918 E0.02791
G1 X135.518 Y134.992 E0.02828
G1 X135.739 Y135.986 E0.02613
G1 X135.832 Y136.168 E0.00524
G1 X136.456 Y136.942 E0.02551
G1 X137.349 Y137.376 E0.02546
G1 X122.145 Y137.376 E0.39004
M73 P1 R55
G1 X123.047 Y136.944 E0.02564
G1 X123.738 Y136.078 E0.02842
G1 X123.984 Y135.000 E0.02836
G1 X123.738 Y133.922 E0.02836
G1 X123.046 Y133.055 E0.02848
G1 X122.201 Y132.650 E0.02401
G1 E-3.50000 F3600.000
;WIPE_START
G1 F7200.000
G1 X125.201 Y132.645 E-1.42500
;WIPE_END
G1 E-0.07500 F3600.000
G1 X135.913 Y134.994 F9000.000
G1 E5.00000 F2400.000
;TYPE:External perimeter
G1 F1200.000
G1 X136.123 Y134.089 E0.02382
G1 X136.689 Y133.372 E0.02343
G1 X137.527 Y132.964 E0.02392
G1 X138.454 Y132.959 E0.02378
G1 X139.302 Y133.367 E0.02412
G1 X139.865 Y134.117 E0.02406
G1 X139.982 Y135.000 E0.02286
G1 X139.865 Y135.883 E0.02286
G1 X139.303 Y136.632 E0.02401
G1 X138.460 Y137.037 E0.02400
G1 X137.529 Y137.034 E0.02389
G1 X136.702 Y136.633 E0.02356
G1 X136.158 Y135.957 E0.02227
G1 X136.105 Y135.855 E0.00296
G1 X135.926 Y135.052 E0.02108
G1 X135.581 Y134.770 F9000.000
G1 E-3.50000 F3600.000
;WIPE_START
G1 F7200.000
G1 X136.123 Y134.089 E-0.46684
G1 X136.689 Y133.372 E-0.43387
G1 X137.527 Y132.964 E-0.44290
G1 X137.698 Y132.963 E-0.08139
;WIPE_END
G1 E-0.07500 F3600.000
G1 X138.647 Y132.624 F9000.000
G1 E5.00000 F2400.000
;TYPE:Perimeter
G1 F1200.000
G1 X139.878 Y132.624 E0.03158
G1 X139.885 Y133.501 E0.02249
G1 X139.553 Y133.060 E0.01416
G1 X138.701 Y132.650 E0.02425
G1 E-3.50000 F3600.000
;WIPE_START
G1 F7200.000
G1 X139.878 Y132.624 E-0.55915
G1 X139.885 Y133.501 E-0.41649
G1 X139.553 Y133.060 E-0.26223
G1 X139.198 Y132.889 E-0.18712
;WIPE_END
G1 E-0.07500 F3600.000
G1 X139.885 Y136.499 F9000.000
G1 E5.00000 F2400.000
G1 F1200.000
G1 X139.878 Y137.376 E0.02249
G1 X138.645 Y137.376 E0.03163
G1 X139.555 Y136.939 E0.02588
G1 X139.849 Y136.547 E0.01257
G1 E-3.50000 F3600.000
;WIPE_START
G1 F7200.000
G1 X139.878 Y137.376 E-0.39391
G1 X138.645 Y137.376 E-0.58568
G1 X139.491 Y136.970 E-0.44540
;WIPE_END
G1 E-0.07500 F3600.000
G1 X123.588 Y135.000 F9000.000
G1 E5.00000 F2400.000
;TYPE:External perimeter
G1 F1200.000
G1 X123.381 Y135.906 E0.02384
G1 X122.800 Y136.634 E0.02390
G1 X121.960 Y137.037 E0.02392
G1 X121.028 Y137.034 E0.02389
G1 X120.200 Y136.631 E0.02365
G1 X119.638 Y135.884 E0.02397
G1 X119.518 Y135.001 E0.02287
G1 X119.627 Y134.149 E0.02204
G1 X120.185 Y133.375 E0.02446
G1 X121.027 Y132.964 E0.02404
G1 X121.954 Y132.959 E0.02378
G1 X122.799 Y133.364 E0.02405
G1 X123.381 Y134.094 E0.02395
G1 X123.575 Y134.942 E0.02230
G1 X123.934 Y135.200 F9000.000
G1 E-3.50000 F3600.000
;WIPE_START
G1 F7200.000
G1 X123.381 Y135.906 E-0.46723
G1 X122.800 Y136.634 E-0.44247
G1 X121.960 Y137.037 E-0.44288
G1 X121.807 Y137.037 E-0.07243
;WIPE_END
G1 E-0.07500 F3600.000
G1 X120.844 Y132.624 F9000.000
G1 E5.00000 F2400.000
;TYPE:Perimeter
G1 F1200.000
G1 X119.929 Y133.071 E0.02614
G1 X119.615 Y133.506 E0.01376
G1 X119.622 Y132.624 E0.02262
G1 X120.784 Y132.624 E0.02983
G1 E-3.50000 F3600.000
;WIPE_START
G1 F7200.000
G1 X119.929 Y133.071 E-0.45849
G1 X119.615 Y133.506 E-0.25470
G1 X119.622 Y132.624 E-0.41887
G1 X120.238 Y132.624 E-0.29294
;WIPE_END
G1 E-0.07500 F3600.000
G1 X119.615 Y136.495 F9000.000
G1 E5.00000 F2400.000
G1 F1200.000
G1 X119.947 Y136.937 E0.01418
G1 X120.849 Y137.376 E0.02572
G1 X119.622 Y137.376 E0.03149
G1 X119.615 Y136.555 E0.02105
G1 X119.239 Y137.719 F9000.000
;TYPE:External perimeter
G1 F1200.000
G1 X119.227 Y136.241 E0.03790
G1 X119.153 Y135.242 E0.02570
G1 X119.154 Y134.758 E0.01243
G1 X119.228 Y133.758 E0.02571
G1 X119.248 Y132.245 E0.03883
G1 X140.255 Y132.249 E0.53892
G1 X140.272 Y133.758 E0.03872
G1 X140.346 Y134.758 E0.02570
G1 X140.346 Y135.242 E0.01243
G1 X140.272 Y136.242 E0.02570
G1 X140.252 Y137.755 E0.03883
G1 X119.270 Y137.759 E0.53829
G1 X119.429 Y137.367 F9000.000
G1 X119.513 Y136.326
;TYPE:Gap fill
;WIDTH:0.0921047
G1 F1200.000
G1 X119.419 Y135.892 E0.00171
G1 E-3.50000 F3600.000
;WIPE_START
G1 F7200.000
G1 X119.513 Y136.326 E-0.21096
;WIPE_END
G1 E-1.28904 F3600.000
G1 X121.042 Y137.398 F9000.000
G1 E5.00000 F2400.000
;WIDTH:0.375289
G1 F1200.000
G1 X121.953 Y137.399 E0.02067
G1 E-3.50000 F3600.000
;WIPE_START
G1 F7200.000
G1 X121.042 Y137.398 E-0.43279
;WIPE_END
G1 E-1.06721 F3600.000
G1 X121.955 Y132.602 F9000.000
G1 E5.00000 F2400.000
;WIDTH:0.374354
G1 F1200.000
G1 X121.037 Y132.602 E0.02076
G1 E-3.50000 F3600.000
;WIPE_START
G1 F7200.000
G1 X121.955 Y132.602 E-0.43595
;WIPE_END
G1 E-1.06405 F3600.000
G1 X134.991 Y133.126 F9000.000
G1 E5.00000 F2400.000
;TYPE:Solid infill
;WIDTH:0.421459
G1 F1200.000
G1 X135.294 Y133.428 E0.01102
G1 X135.143 Y133.619 E0.00625
G1 X135.104 Y133.786 E0.00443
G1 X134.617 Y133.299 E0.01774
G1 X134.070 Y133.299 E0.01410
G1 X135.001 Y134.231 E0.03393
G1 X134.898 Y134.675 E0.01175
G1 X133.522 Y133.299 E0.05012
G1 X132.975 Y133.299 E0.01410
G1 X134.872 Y135.196 E0.06909
G1 X135.029 Y135.901 E0.01859
G1 X132.427 Y133.299 E0.09475
G1 X131.880 Y133.299 E0.01410
G1 X135.281 Y136.701 E0.12387
G1 X134.734 Y136.701 E0.01410
G1 X131.332 Y133.299 E0.12387
G1 X130.785 Y133.299 E0.01410
G1 X134.186 Y136.701 E0.12387
G1 X133.639 Y136.701 E0.01410
G1 X130.237 Y133.299 E0.12387
G1 X129.690 Y133.299 E0.01410
G1 X133.091 Y136.701 E0.12387
G1 X132.544 Y136.701 E0.01410
G1 X129.142 Y133.299 E0.12387
G1 X128.595 Y133.299 E0.01410
G1 X131.996 Y136.701 E0.12387
G1 X131.449 Y136.701 E0.01410
G1 X128.048 Y133.299 E0.12387
G1 X127.500 Y133.299 E0.01410
G1 X130.901 Y136.701 E0.12387
G1 X130.354 Y136.701 E0.01410
G1 X126.953 Y133.299 E0.12387
G1 X126.405 Y133.299 E0.01410
G1 X129.807 Y136.701 E0.12387
G1 X129.259 Y136.701 E0.01410
G1 X125.858 Y133.299 E0.12387
G1 X125.310 Y133.299 E0.01410
G1 X128.712 Y136.701 E0.12387
G1 X128.164 Y136.701 E0.01410
G1 X124.763 Y133.299 E0.12387
G1 X124.215 Y133.299 E0.01410
G1 X127.617 Y136.701 E0.12387
G1 X127.069 Y136.701 E0.01410
G1 X124.471 Y134.103 E0.09462
G1 X124.633 Y134.812 E0.01874
G1 X126.522 Y136.701 E0.06879
G1 X125.974 Y136.701 E0.01410
G1 X124.601 Y135.328 E0.05001
G1 X124.499 Y135.773 E0.01177
G1 X125.427 Y136.701 E0.03378
G1 X124.879 Y136.701 E0.01410
G1 X124.398 Y136.219 E0.01754
G1 X124.361 Y136.378 E0.00420
G1 X124.205 Y136.574 E0.00646
G1 X124.505 Y136.874 E0.01094
G1 E-3.50000 F3600.000
;WIPE_START
G1 F7200.000
G1 X124.205 Y136.574 E-0.20176
G1 X124.361 Y136.378 E-0.11908
G1 X124.398 Y136.219 E-0.07742
G1 X124.879 Y136.701 E-0.32359
G1 X125.427 Y136.701 E-0.26005
G1 X124.767 Y136.041 E-0.44311
;WIPE_END
G1 E-0.07500 F3600.000
G1 X137.542 Y137.398 F9000.000
G1 E5.00000 F2400.000
;TYPE:Gap fill
;WIDTH:0.375287
G1 F1200.000
G1 X138.453 Y137.399 E0.02066
G1 X139.987 Y136.330 F9000.000
;WIDTH:0.0848727
G1 F1200.000
G1 X140.077 Y135.935 E0.00136
G1 X140.077 Y134.065 F9000.000
;WIDTH:0.0848708
G1 F1200.000
G1 X139.987 Y133.670 E0.00136
G1 X138.455 Y132.602 F9000.000
;WIDTH:0.374352
G1 F1200.000
G1 X137.537 Y132.602 E0.02076
G1 E-3.50000 F3600.000
;WIPE_START
G1 F7200.000
G1 X138.455 Y132.602 E-0.43594
;WIPE_END
G1 E-1.06406 F3600.000
G1 X135.999 Y123.990 F9000.000
G1 E5.00000 F2400.000
;TYPE:Perimeter
;WIDTH:0.42
G1 F1200.000
G1 X123.503 Y123.990 E0.32058
G1 X124.094 Y123.249 E0.02431
G1 X124.379 Y122.000 E0.03287
G1 X124.094 Y120.751 E0.03287
G1 X123.503 Y120.010 E0.02431
G1 X135.992 Y120.010 E0.32039
G1 X135.410 Y120.747 E0.02409
G1 X135.122 Y121.991 E0.03274
G1 X135.374 Y123.118 E0.02963
G1 X135.507 Y123.379 E0.00752
G1 X135.962 Y123.943 E0.01859
G1 X137.349 Y124.376 F9000.000
G1 F1200.000
G1 X122.145 Y124.376 E0.39004
G1 X123.047 Y123.944 E0.02564
G1 X123.738 Y123.078 E0.02842
G1 X123.984 Y122.000 E0.02836
G1 X123.738 Y120.922 E0.02836
G1 X123.046 Y120.055 E0.02848
G1 X122.147 Y119.624 E0.02555
G1 X137.344 Y119.624 E0.38987
G1 X136.441 Y120.064 E0.02579
G1 X135.767 Y120.918 E0.02791
G1 X135.518 Y121.992 E0.02828
G1 X135.739 Y122.986 E0.02613
G1 X135.832 Y123.168 E0.00524
G1 X136.456 Y123.942 E0.02551
G1 X137.295 Y124.349 E0.02392
G1 X137.529 Y124.034 F9000.000
;TYPE:External perimeter
G1 F1200.000
G1 X136.702 Y123.633 E0.02356
G1 X136.158 Y122.957 E0.02227
G1 X136.105 Y122.855 E0.00296
G1 X135.913 Y121.994 E0.02262
G1 X136.123 Y121.089 E0.02382
G1 X136.689 Y120.372 E0.02343
G1 X137.527 Y119.964 E0.02392
G1 X138.454 Y119.959 E0.02378
G1 X139.302 Y120.367 E0.02412
G1 X139.865 Y121.117 E0.02406
G1 X139.982 Y122.000 E0.02286
M73 P1 R54
G1 X139.865 Y122.883 E0.02286
G1 X139.303 Y123.632 E0.02401
G1 X138.460 Y124.037 E0.02400
G1 X137.589 Y124.034 E0.02235
G1 X137.256 Y124.327 F9000.000
G1 E-3.50000 F3600.000
;WIPE_START
G1 F7200.000
G1 X136.702 Y123.633 E-0.46205
G1 X136.158 Y122.957 E-0.41231
G1 X136.105 Y122.855 E-0.05480
G1 X135.913 Y121.994 E-0.41888
G1 X135.950 Y121.836 E-0.07696
;WIPE_END
G1 E-0.07500 F3600.000
G1 X139.885 Y120.501 F9000.000
G1 E5.00000 F2400.000
;TYPE:Perimeter
G1 F1200.000
G1 X139.553 Y120.060 E0.01416
G1 X138.647 Y119.624 E0.02579
G1 X139.878 Y119.624 E0.03158
G1 X139.884 Y120.441 E0.02096
G1 E-3.50000 F3600.000
;WIPE_START
G1 F7200.000
G1 X139.553 Y120.060 E-0.23991
G1 X138.647 Y119.624 E-0.47747
G1 X139.878 Y119.624 E-0.58471
G1 X139.880 Y119.883 E-0.12291
;WIPE_END
G1 E-0.07500 F3600.000
G1 X139.885 Y123.499 F9000.000
G1 E5.00000 F2400.000
G1 F1200.000
G1 X139.878 Y124.376 E0.02249
G1 X138.645 Y124.376 E0.03163
G1 X139.555 Y123.939 E0.02588
G1 X139.849 Y123.547 E0.01257
G1 E-3.50000 F3600.000
;WIPE_START
G1 F7200.000
G1 X139.878 Y124.376 E-0.39391
G1 X138.645 Y124.376 E-0.58568
G1 X139.491 Y123.970 E-0.44540
;WIPE_END
G1 E-0.07500 F3600.000
G1 X123.588 Y122.000 F9000.000
G1 E5.00000 F2400.000
;TYPE:External perimeter
G1 F1200.000
G1 X123.381 Y122.906 E0.02384
G1 X122.800 Y123.634 E0.02390
G1 X121.960 Y124.037 E0.02392
G1 X121.028 Y124.034 E0.02389
G1 X120.200 Y123.631 E0.02365
G1 X119.638 Y122.884 E0.02397
G1 X119.518 Y122.001 E0.02287
G1 X119.627 Y121.149 E0.02204
G1 X120.185 Y120.375 E0.02446
G1 X121.027 Y119.964 E0.02404
G1 X121.954 Y119.959 E0.02378
G1 X122.799 Y120.364 E0.02405
G1 X123.381 Y121.094 E0.02395
G1 X123.575 Y121.942 E0.02230
G1 X123.934 Y122.200 F9000.000
G1 E-3.50000 F3600.000
;WIPE_START
G1 F7200.000
G1 X123.381 Y122.906 E-0.46723
G1 X122.800 Y123.634 E-0.44247
G1 X121.960 Y124.037 E-0.44288
G1 X121.807 Y124.037 E-0.07243
;WIPE_END
G1 E-0.07500 F3600.000
G1 X120.844 Y119.624 F9000.000
G1 E5.00000 F2400.000
;TYPE:Perimeter
G1 F1200.000
G1 X119.929 Y120.071 E0.02614
G1 X119.615 Y120.506 E0.01376
G1 X119.622 Y119.624 E0.02262
G1 X120.784 Y119.624 E0.02983
G1 E-3.50000 F3600.000
;WIPE_START
G1 F7200.000
G1 X119.929 Y120.071 E-0.45849
G1 X119.615 Y120.506 E-0.25470
G1 X119.622 Y119.624 E-0.41887
G1 X120.238 Y119.624 E-0.29294
;WIPE_END
G1 E-0.07500 F3600.000
G1 X119.615 Y123.495 F9000.000
G1 E5.00000 F2400.000
G1 F1200.000
G1 X119.947 Y123.937 E0.01418
G1 X120.849 Y124.376 E0.02572
G1 X119.622 Y124.376 E0.03149
G1 X119.615 Y123.555 E0.02105
G1 X119.239 Y124.719 F9000.000
;TYPE:External perimeter
G1 F1200.000
G1 X119.227 Y123.241 E0.03790
G1 X119.153 Y122.242 E0.02570
G1 X119.154 Y121.758 E0.01243
G1 X119.228 Y120.758 E0.02571
G1 X119.248 Y119.245 E0.03883
G1 X140.255 Y119.249 E0.53892
G1 X140.272 Y120.758 E0.03872
G1 X140.346 Y121.758 E0.02570
G1 X140.346 Y122.242 E0.01243
G1 X140.272 Y123.242 E0.02570
G1 X140.252 Y124.755 E0.03883
G1 X119.270 Y124.759 E0.53829
G1 X119.429 Y124.367 F9000.000
G1 X119.513 Y123.326
;TYPE:Gap fill
;WIDTH:0.0921047
G1 F1200.000
G1 X119.419 Y122.892 E0.00171
G1 E-3.50000 F3600.000
;WIPE_START
G1 F7200.000
G1 X119.513 Y123.326 E-0.21096
;WIPE_END
G1 E-1.28904 F3600.000
G1 X121.042 Y124.398 F9000.000
G1 E5.00000 F2400.000
;WIDTH:0.375289
G1 F1200.000
G1 X121.953 Y124.399 E0.02067
G1 E-3.50000 F3600.000
;WIPE_START
G1 F7200.000
G1 X121.042 Y124.398 E-0.43279
;WIPE_END
G1 E-1.06721 F3600.000
G1 X121.955 Y119.602 F9000.000
G1 E5.00000 F2400.000
;WIDTH:0.374354
G1 F1200.000
G1 X121.037 Y119.602 E0.02076
G1 E-3.50000 F3600.000
;WIPE_START
M73 P2 R54
G1 F7200.000
G1 X121.955 Y119.602 E-0.43595
;WIPE_END
G1 E-1.06405 F3600.000
G1 X134.991 Y120.126 F9000.000
G1 E5.00000 F2400.000
;TYPE:Solid infill
;WIDTH:0.421459
G1 F1200.000
G1 X135.294 Y120.428 E0.01102
G1 X135.143 Y120.619 E0.00625
G1 X135.104 Y120.786 E0.00443
G1 X134.617 Y120.299 E0.01774
G1 X134.070 Y120.299 E0.01410
G1 X135.001 Y121.231 E0.03393
G1 X134.898 Y121.675 E0.01175
G1 X133.522 Y120.299 E0.05012
G1 X132.975 Y120.299 E0.01410
G1 X134.872 Y122.196 E0.06909
G1 X135.029 Y122.901 E0.01859
G1 X132.427 Y120.299 E0.09475
G1 X131.880 Y120.299 E0.01410
G1 X135.281 Y123.701 E0.12387
G1 X134.734 Y123.701 E0.01410
G1 X131.332 Y120.299 E0.12387
G1 X130.785 Y120.299 E0.01410
G1 X134.186 Y123.701 E0.12387
G1 X133.639 Y123.701 E0.01410
G1 X130.237 Y120.299 E0.12387
G1 X129.690 Y120.299 E0.01410
G1 X133.091 Y123.701 E0.12387
G1 X132.544 Y123.701 E0.01410
G1 X129.142 Y120.299 E0.12387
G1 X128.595 Y120.299 E0.01410
G1 X131.996 Y123.701 E0.12387
G1 X131.449 Y123.701 E0.01410
G1 X128.048 Y120.299 E0.12387
G1 X127.500 Y120.299 E0.01410
G1 X130.901 Y123.701 E0.12387
G1 X130.354 Y123.701 E0.01410
G1 X126.953 Y120.299 E0.12387
G1 X126.405 Y120.299 E0.01410
G1 X129.807 Y123.701 E0.12387
G1 X129.259 Y123.701 E0.01410
G1 X125.858 Y120.299 E0.12387
G1 X125.310 Y120.299 E0.01410
G1 X128.712 Y123.701 E0.12387
G1 X128.164 Y123.701 E0.01410
G1 X124.763 Y120.299 E0.12387
G1 X124.215 Y120.299 E0.01410
G1 X127.617 Y123.701 E0.12387
G1 X127.069 Y123.701 E0.01410
